X:1
T:Title
L:1/8
Q:1/4=152
M:4/4
K:Ab
V:1 treble nm="Church Organ, Staff"
V:1
 F4 F2 G2 | A4 F4 | G4 c4 | A4 F4 | F4 G2 A2 | B4 c4 | d4 G4 | G8 | A4 G2 F2 | c4 e4 | e4 d4 | %11
w: By~Henry~J.~Gauntlett,~1805\-1876 * *|||||||||||
 d4 c4 | F4 _G2 E2- | E2 B4 G2- | G2 G4 F2- | F8- | F2 z2 z4 |] %17
w: ||||||

